assets/icons/icon-chevron__left/web/icon-chevron__left.svg

<?xml version="1.0" encoding="UTF-8" standalone="no"?>
<svg width="48px" height="48px" viewBox="0 0 48 48" version="1.1" xmlns="http://www.w3.org/2000/svg" xmlns:xlink="http://www.w3.org/1999/xlink">
    <!-- Generator: Sketch 45.2 (43514) - http://www.bohemiancoding.com/sketch -->
    <title>icon-chevron__left</title>
    <desc>Created with Sketch.</desc>
    <defs></defs>
    <g id="Symbols" stroke="none" stroke-width="1" fill="none" fill-rule="evenodd">
        <g id="icon-chevron__left" fill="#2D2D2D">
            <path d="M19.6195337,24.7434051 L26.4833661,17.4176739 C26.859156,17.0165954 26.8369048,16.3869746 26.4329893,16.0120996 C26.0262578,15.6346109 25.3967519,15.658729 25.0206587,16.0601312 L17.5870437,23.9939882 C17.5803084,23.999919 17.57363,24.0059561 17.5670107,24.0120996 C17.3549107,24.2089501 17.2480509,24.4760444 17.2488027,24.7434051 C17.2480509,25.0107658 17.3549107,25.27786 17.5670107,25.4747106 C17.57363,25.480854 17.5803084,25.4868911 17.5870437,25.4928219 L25.0206587,33.4266789 C25.3967519,33.8280811 26.0262578,33.8521992 26.4329893,33.4747106 C26.8369048,33.0998355 26.859156,32.4702147 26.4833661,32.0691362 L19.6195337,24.7434051 Z"></path>
        </g>
    </g>
</svg>

<svg width="48" height="48" viewBox="0 0 48 48" xmlns="http://www.w3.org/2000/svg"><title>icon-chevron__left</title><path d="M19.62 24.743l6.863-7.325a.991.991 0 0 0-.05-1.406 1 1 0 0 0-1.412.048l-7.434 7.934a.991.991 0 0 0-.338.75.991.991 0 0 0 .338.749l7.434 7.934a1 1 0 0 0 1.412.048.991.991 0 0 0 .05-1.406l-6.863-7.326z" fill="#2D2D2D" fill-rule="evenodd"/></svg>
